X: 30
T:L'escriv?to
T:La femme aux sarrazins
R:Chanson
O:France
B:Le livre des Chansons (Henri Davenson) n?5
Z:<anamnese@caramail.com> -- http://anamnese.fr.st
M:2/4
L:1/8
Q:1/4=110
K:Bbmaj
F | B>c d d | c2 d d | B>c d d | [M:3/8] c2 d d B c |
[M:2/4] d2 f2 | c c B c | c2 d2 | B4 ||
W:Jean-Pierre de Provence se marie aujourd'hui (2x)
W:Il prend femme si jeune qu'il ne peut s'en servir.
W:Il est parti en guerre sept ans sans revenir.
W:Au bout de la huiti?me il revient au pays /.../
<end>
<start>
